X:1
T:Burford, CM
T:Burford, CM
T:Chetham’s Psalmody, 1718
T:Public Domain Courtesy of the Cyber Hymnal™
C:Chetham’s Psalmody, 1718
Z:Public Domain
Z:Courtesy of the Cyber Hymnal™
%%score ( 1 2 ) ( 3 4 )
L:1/8
Q:1/4=135
M:3/4
K:Ab
V:1 treble 
V:2 treble 
V:3 bass 
V:4 bass 
V:1
 [CF]2 [CF]4 | [CG]2 [CA]4 | [FB]2 (c2 B2) | [FA]2 [=EG]4 | [C=E]2 [CF]4 | [CG]2 [CA]4 | %6
 [FB]2 [=Ec]4- | [Ec]4 [_Ec]2 | (B2 A2) [EG]2 | [EA]4 [EB]2 | (c2 B2) [CA]2 | [CG]4 [C=E]2 | %12
 [A,F]4 [FA]2 | (G2 F2) [C=E]2 | [CF]6 |] %15
V:2
 x6 | x6 | x2 F4 | x6 | x6 | x6 | x6 | x6 | F4 x2 | x6 | E4 x2 | x6 | x6 | D4 x2 | x6 |] %15
V:3
 [F,A,]2 [F,A,]4 | [=E,G,]2 F,4 | [D,F,]2 [A,,C]4 | [B,,D]2 [C,G,]4 | [B,,G,]2 [A,,F,]4 | %5
 [C,=E,]2 F,4 | [D,F,]2 [C,G,]4- | [C,G,]4 [A,,C]2 | (D2 C2) [E,B,]2 | [C,A,]4 [E,G,]2 | %10
 A,2 [E,G,]2 F,2 | [C,=E,]4 [C,G,]2 | [D,F,]4 [A,,C]2 | (B,2 A,2) [C,G,]2 | [F,A,]6 |] %15
V:4
 x6 | x2 F,4 | x6 | x6 | x6 | x2 (F,2 _E,2) | x6 | x6 | D,4 x2 | x6 | (A,2 F,2) x2 | x6 | x6 | %13
 B,,4 x2 | x6 |] %15

